dist/svg/light-o.svg

<!-- Generated by Trend Micro Style Portal -->
<svg version="1.1" xmlns="http://www.w3.org/2000/svg" width="16" height="16" viewBox="0 0 16 16">
  <title>light-o</title>
  <path fill="rgb(34,34,34)" d="M8.75 13.5h-1.5v2.5h1.5v-2.5z"></path>
  <path fill="rgb(34,34,34)" d="M16 7h-2.2v1.5h2.2v-1.5z"></path>
  <path fill="rgb(34,34,34)" d="M2.2 7h-2.2v1.5h2.2v-1.5z"></path>
  <path fill="rgb(34,34,34)" d="M12.773 11.712l-1.061 1.061 1.415 1.414 1.060-1.060-1.414-1.415z"></path>
  <path fill="rgb(34,34,34)" d="M3.227 11.712l-1.414 1.415 1.060 1.060 1.415-1.414-1.061-1.061z"></path>
  <path fill="rgb(34,34,34)" d="M8.75 1.5v2.484l0.785 0.426c1.029 0.559 1.715 1.632 1.715 2.865 0 1.795-1.455 3.25-3.25 3.25s-3.25-1.455-3.25-3.25c0-1.233 0.687-2.306 1.698-2.856l0.017-0.008 0.785-0.426v-2.484h1.5zM10.25 0h-4.5v3.091c-1.5 0.819-2.5 2.384-2.5 4.183 0 2.623 2.127 4.75 4.75 4.75s4.75-2.127 4.75-4.75c0-1.799-1-3.365-2.475-4.171l-0.025-0.012v-3.091z"></path>
</svg>

<svg width="16" height="16" viewBox="0 0 16 16" fill="rgb(34, 34, 34)" xmlns="http://www.w3.org/2000/svg"><title>light-o</title><path d="M8.75 13.5H7.25V16H8.75V13.5Z" fill="rgb(34, 34, 34)" fill-opacity="1.00"/><path d="M16 7H13.8V8.5H16V7Z" fill="rgb(34, 34, 34)" fill-opacity="1.00"/><path d="M2.2 7H0V8.5H2.2V7Z" fill="rgb(34, 34, 34)" fill-opacity="1.00"/><path d="M12.773 11.712L11.712 12.773L13.127 14.187L14.187 13.127L12.773 11.712Z" fill="rgb(34, 34, 34)" fill-opacity="1.00"/><path d="M3.227 11.712L1.813 13.127L2.873 14.187L4.288 12.773L3.227 11.712Z" fill="rgb(34, 34, 34)" fill-opacity="1.00"/><path d="M8.75 1.5V3.984L9.535 4.41C10.564 4.969 11.25 6.042 11.25 7.275C11.25 9.07 9.795 10.525 8 10.525C6.205 10.525 4.75 9.07 4.75 7.275C4.75 6.042 5.437 4.969 6.448 4.419L6.465 4.411L7.25 3.985V1.501H8.75V1.5ZM10.25 0H5.75V3.091C4.25 3.91 3.25 5.475 3.25 7.274C3.25 9.897 5.377 12.024 8 12.024C10.623 12.024 12.75 9.897 12.75 7.274C12.75 5.475 11.75 3.909 10.275 3.103L10.25 3.091V0Z" fill="rgb(34, 34, 34)" fill-opacity="1.00"/></svg>
